icons/lines/magicpen.svg

<svg xmlns="http://www.w3.org/2000/svg" width="24" height="24" viewBox="0 0 24 24" fill="none" stroke="currentColor" stroke-width="2" stroke-linecap="round" stroke-linejoin="round" >
  <path d="M3.49994 20.5C4.32994 21.33 5.66994 21.33 6.49994 20.5L19.4999 7.5C20.3299 6.67 20.3299 5.33 19.4999 4.5C18.6699 3.67 17.3299 3.67 16.4999 4.5L3.49994 17.5C2.66994 18.33 2.66994 19.67 3.49994 20.5Z"/>
  <path d="M18.0098 8.98999L15.0098 5.98999"/>
  <path d="M8.5 2.44L10 2L9.56 3.5L10 5L8.5 4.56L7 5L7.44 3.5L7 2L8.5 2.44Z"/>
  <path d="M4.5 8.44L6 8L5.56 9.5L6 11L4.5 10.56L3 11L3.44 9.5L3 8L4.5 8.44Z"/>
  <path d="M19.5 13.44L21 13L20.56 14.5L21 16L19.5 15.56L18 16L18.44 14.5L18 13L19.5 13.44Z"/>
  </svg>

<svg xmlns="http://www.w3.org/2000/svg" width="24" height="24" viewBox="0 0 24 24" fill="none" stroke="currentColor" stroke-width="2" stroke-linecap="round" stroke-linejoin="round">
  <path d="m18.01 8.99-3-3" />
  <path d="M19.5 13.44 21 13l-.44 1.5L21 16l-1.5-.44L18 16l.44-1.5L18 13z" />
  <path d="M3.5 17.5a1 1 0 1 0 3 3l13-13a1 1 0 1 0-3-3z" />
  <path d="M4.5 8.44 6 8l-.44 1.5L6 11l-1.5-.44L3 11l.44-1.5L3 8z" />
  <path d="M8.5 2.44 10 2l-.44 1.5L10 5l-1.5-.44L7 5l.44-1.5L7 2z" />
</svg>
